X:1
T:March on to Victory
T:March on to Victory
T:Bunyan Smith
T:Jennie Wilson, 1910
T:Public Domain Courtesy of the Cyber Hymnal™
T:Public Domain Courtesy of the Cyber Hymnal™
C:Bunyan Smith
Z:Public Domain
Z:Courtesy of the Cyber Hymnal™
%%score ( 1 2 ) ( 3 4 )
L:1/8
Q:1/4=93
M:4/4
K:Ab
V:1 treble 
V:2 treble 
V:3 bass 
V:4 bass 
V:1
 [CE] | [Ec]>[DB] [DB]>[CA] [CA]>[DA] [CA]>[Ec] | [Ed]>[Fd] [Gd]>[Gd] [DG]3 [DG] | %3
w: 1.~En-|list- ed in the Christ- ian ranks, A|faith- ful sol- dier be, And|
w: 2.~The|con- flict may be hard and long, But|tri- umph is as- sured, And|
w: 3.~Re-|ly- ing on the Lord of Hosts, March|on to con- quer sin, And|
w: 4.~The|joy of con- quest will be yours, When|you have o- ver- come, And|
 [CA]>[DA] [CA]>[EA] [=DG]>[DF] !fermata![_DE]>E | e3 [Gd] [Ac]>[GB] !fermata![EA]3/2 || %5
w: side by side with loy- al ones March|on (march on) to vic-|
w: Heav- en holds a rich re- ward For|tri- (tri- als) als here|
w: to your Lead- er glad- ly bear Each|tro- (tro- phy) phy that|
w: af- ter war- fare, rest and peace A-|wait (a- wait) in God’s|
"^Refrain" [CA]/ | c3 [Fd] [Ec]>[DB] !fermata![CA]>[Ec] | d3 [Ge] [Gd]>[Gd] !fermata![DG]>[DG] | %8
w: to-|ry. * * * * *||
w: en-|dured. March on (march on) to|vic- to- ry, March on (march|
w: you|win. * * * * *||
w: bright|home. * * * * *||
 [CA]>[DA] [CA]>[EA] [=DG]>[DF] !fermata![_DE]>E | e3 [Gd] [Ac]>[GB] A-A |] %10
w: ||
w: on) to vic- to- ry; Be- neath the|ban- ner of the Lord *|
w: ||
w: ||
V:2
 x | x8 | x8 | x15/2 E/ | EFG x9/2 || x/ | EFE x5 | EFG x5 | x15/2 E/ | EFG x2 A F/E/ x |] %10
V:3
 [A,,A,] | [A,,A,]>[A,,A,] [A,,A,]>[A,,E,] [A,,E,]>[A,,F,] [A,,E,]>[A,,A,] | %2
 [E,G,]>[E,A,] [E,B,]>[E,B,] [E,B,]3 E, | %3
 [A,,E,]>[A,,F,] [A,,E,]>[C,A,] [B,,B,]>[B,,A,] !fermata![E,G,]>[E,G,] | %4
 G,A,B,[E,E] [A,E]>[E,D] !fermata![A,,A,C]3/2 || [A,,E,]/ | %6
 A,A,A,[A,,A,] [A,,A,]>[A,,A,] [A,,E,]>[A,,A,] | G,A,B,[E,B,] [E,B,]>[E,B,] !fermata![E,B,]>E, | %8
 [A,,E,]>[A,,F,] [A,,E,]>[C,A,] [B,,B,]>[B,,A,] !fermata![E,G,]>[E,G,] | %9
 G,A,B,[E,E] [A,E]>[E,D] [A,,A,C]D/!fermata!C/ |] %10
V:4
 x | x8 | x7 E, | x8 | E,3 x9/2 || x/ | A,,3 x5 | E,3 x7/2 E,/ x | x8 | E,3 x3 A,, x |] %10

